src/img/index/feature-3.svg

<svg width="61" height="80" viewBox="0 0 61 80" fill="none" xmlns="http://www.w3.org/2000/svg">
<path fill-rule="evenodd" clip-rule="evenodd" d="M61 28C61 28.7363 60.4062 29.3333 59.6738 29.3333H58.3479V72H59.6738C60.4062 72 61 72.5969 61 73.3333V78.6667C61 79.4031 60.4062 80 59.6738 80H1.32617C0.59375 80 0 79.4031 0 78.6667V73.3333C0 72.5969 0.59375 72 1.32617 72H2.6521V29.3333H1.32617C0.59375 29.3333 0 28.7363 0 28V6.66675C0.00439453 2.98657 2.97046 0.00439453 6.63037 0H54.3696C58.0295 0.00439453 60.9956 2.98657 61 6.66675V28ZM6.63037 2.66675C4.43311 2.66675 2.6521 4.45752 2.6521 6.66675V26.6667H58.3477V6.66675C58.3477 4.45752 56.5667 2.66675 54.3694 2.66675H6.63037ZM41.0742 72C41.9517 70.8528 42.4299 69.4473 42.4348 68V64H45.0869C47.2842 64 49.0652 62.209 49.0652 60V54.6665C49.0652 52.4575 47.2842 50.6665 45.0869 50.6665H19.8914C19.1589 50.6665 18.5652 51.2637 18.5652 52V68C18.5701 69.4473 19.0481 70.8528 19.9258 72H10.6086V29.3333H19.8914V36C19.8914 36.7363 20.4851 37.3333 21.2173 37.3333H26.5217V41.3333C26.5217 42.0696 27.1155 42.6665 27.8477 42.6665H33.1521C33.8845 42.6665 34.4783 42.0696 34.4783 41.3333V37.3333H39.7825C40.5149 37.3333 41.1086 36.7363 41.1086 36V29.3333H50.3914V72H41.0742ZM21.2173 53.3333V68C21.2173 70.209 22.9983 72 25.1956 72H35.8042C38.0015 72 39.7825 70.209 39.7825 68V53.3333H21.2173ZM45.0869 53.3333C45.8193 53.3333 46.4131 53.9302 46.4131 54.6665V60C46.4131 60.7363 45.8193 61.3333 45.0869 61.3333H42.4348V53.3333H45.0869ZM31.8259 37.3333H29.1738V40H31.8259V37.3333ZM22.5435 34.6665V29.3333H38.4565V34.6665H22.5435ZM7.95654 29.3333H5.30444V72H7.95654V29.3333ZM58.3477 77.3335H2.6521V74.6667H58.3477V77.3335ZM53.0435 72H55.6956V29.3333H53.0435V72Z" fill="#F3084E"/>
<path d="M0 0H2.65217V2.66667H0V0Z" transform="translate(29.1741 45.3333)" fill="#F3084E"/>
<path fill-rule="evenodd" clip-rule="evenodd" d="M17.239 18.6667H1.32617C0.59375 18.6667 0 18.0696 0 17.3333V1.33325C0 0.596924 0.59375 0 1.32617 0H17.239C17.9714 0 18.5652 0.596924 18.5652 1.33325V17.3333C18.5652 18.0696 17.9714 18.6667 17.239 18.6667ZM15.9131 2.66675H2.6521V16H15.9131V2.66675Z" transform="translate(9.28271 5.33325)" fill="#F3084E"/>
<path fill-rule="evenodd" clip-rule="evenodd" d="M6.63037 8H1.32617C0.59375 8 0 7.40308 0 6.66675V1.33325C0 0.596924 0.59375 0 1.32617 0H6.63037C7.36279 0 7.95654 0.596924 7.95654 1.33325V6.66675C7.95654 7.40308 7.36279 8 6.63037 8ZM5.3042 2.66675H2.6521V5.3335H5.3042V2.66675Z" transform="translate(33.1523 5.33325)" fill="#F3084E"/>
<path fill-rule="evenodd" clip-rule="evenodd" d="M6.63037 8H1.32617C0.59375 8 0 7.40308 0 6.66675V1.33325C0 0.596924 0.59375 0 1.32617 0H6.63037C7.36279 0 7.95654 0.596924 7.95654 1.33325V6.66675C7.95654 7.40308 7.36279 8 6.63037 8ZM5.3042 2.66675H2.6521V5.3335H5.3042V2.66675Z" transform="translate(43.761 5.33325)" fill="#F3084E"/>
<path fill-rule="evenodd" clip-rule="evenodd" d="M6.63037 8H1.32617C0.59375 8 0 7.40308 0 6.66675V1.33325C0 0.596924 0.59375 0 1.32617 0H6.63037C7.36279 0 7.95654 0.596924 7.95654 1.33325V6.66675C7.95654 7.40308 7.36279 8 6.63037 8ZM5.3042 2.66675H2.6521V5.3335H5.3042V2.66675Z" transform="translate(43.761 16)" fill="#F3084E"/>
<path fill-rule="evenodd" clip-rule="evenodd" d="M6.63037 8H1.32617C0.59375 8 0 7.40308 0 6.66675V1.33325C0 0.596924 0.59375 0 1.32617 0H6.63037C7.36279 0 7.95654 0.596924 7.95654 1.33325V6.66675C7.95654 7.40308 7.36279 8 6.63037 8ZM5.3042 2.66675H2.6521V5.3335H5.3042V2.66675Z" transform="translate(33.1523 16)" fill="#F3084E"/>
</svg>

<svg width="61" height="80" fill="none" xmlns="http://www.w3.org/2000/svg"><path fill-rule="evenodd" clip-rule="evenodd" d="M61 28a1.33 1.33 0 0 1-1.326 1.333h-1.326V72h1.326A1.33 1.33 0 0 1 61 73.333v5.334A1.33 1.33 0 0 1 59.674 80H1.326A1.33 1.33 0 0 1 0 78.667v-5.334A1.33 1.33 0 0 1 1.326 72h1.326V29.333H1.326A1.33 1.33 0 0 1 0 28V6.667C.004 2.987 2.97.004 6.63 0h47.74c3.66.004 6.626 2.987 6.63 6.667V28zM6.63 2.667c-2.197 0-3.978 1.79-3.978 4v20h55.696v-20c0-2.21-1.781-4-3.979-4H6.63zM41.074 72a6.622 6.622 0 0 0 1.36-4v-4h2.653c2.197 0 3.978-1.791 3.978-4v-5.334c0-2.208-1.78-4-3.978-4H19.89A1.33 1.33 0 0 0 18.565 52v16a6.62 6.62 0 0 0 1.36 4H10.61V29.333h9.282V36a1.33 1.33 0 0 0 1.326 1.333h5.305v4a1.33 1.33 0 0 0 1.326 1.334h5.304a1.33 1.33 0 0 0 1.326-1.334v-4h5.304A1.33 1.33 0 0 0 41.11 36v-6.667h9.282V72h-9.317zM21.217 53.333V68c0 2.209 1.781 4 3.979 4h10.608c2.197 0 3.978-1.791 3.978-4V53.333H21.217zm23.87 0a1.33 1.33 0 0 1 1.326 1.334V60a1.33 1.33 0 0 1-1.326 1.333h-2.652v-8h2.652zm-13.261-16h-2.652V40h2.652v-2.667zm-9.282-2.666v-5.334h15.912v5.334H22.543zM7.957 29.332H5.304V72h2.653V29.333zm50.39 48H2.653v-2.666h55.696v2.666zM53.045 72h2.652V29.333h-2.652V72z" fill="#F3084E"/><path d="M29.174 45.333h2.652V48h-2.652v-2.667z" fill="#F3084E"/><path fill-rule="evenodd" clip-rule="evenodd" d="M26.522 24H10.609a1.33 1.33 0 0 1-1.326-1.333v-16a1.33 1.33 0 0 1 1.326-1.334h15.913a1.33 1.33 0 0 1 1.326 1.333v16A1.33 1.33 0 0 1 26.522 24zM25.196 8H11.935v13.333h13.26V8zM39.783 13.333h-5.305A1.33 1.33 0 0 1 33.152 12V6.666a1.33 1.33 0 0 1 1.326-1.333h5.305a1.33 1.33 0 0 1 1.326 1.333V12a1.33 1.33 0 0 1-1.326 1.333zM38.456 8h-2.652v2.667h2.652V8zM50.391 13.333h-5.304A1.33 1.33 0 0 1 43.761 12V6.666a1.33 1.33 0 0 1 1.326-1.333h5.304a1.33 1.33 0 0 1 1.327 1.333V12a1.33 1.33 0 0 1-1.327 1.333zM49.065 8h-2.652v2.667h2.652V8zM50.391 24h-5.304a1.33 1.33 0 0 1-1.326-1.333v-5.334A1.33 1.33 0 0 1 45.087 16h5.304a1.33 1.33 0 0 1 1.327 1.333v5.334A1.33 1.33 0 0 1 50.39 24zm-1.326-5.333h-2.652v2.666h2.652v-2.666zM39.783 24h-5.305a1.33 1.33 0 0 1-1.326-1.333v-5.334A1.33 1.33 0 0 1 34.478 16h5.305a1.33 1.33 0 0 1 1.326 1.333v5.334A1.33 1.33 0 0 1 39.783 24zm-1.327-5.333h-2.652v2.666h2.652v-2.666z" fill="#F3084E"/></svg>
